src/assets/icons/brands-logos,fancy,notion.svg

<svg width="48" height="48" viewBox="0 0 48 48" fill="none" xmlns="http://www.w3.org/2000/svg">
<path fill-rule="evenodd" clip-rule="evenodd" d="M16.1405 13.0284C14.2904 13.1562 13.8701 13.1853 12.8195 12.3119L10.148 10.1423C9.87553 9.86176 10.0122 9.51176 10.6963 9.44235L29.4543 8.04241C31.0285 7.90211 31.8498 8.46295 32.4662 8.95269L35.6835 11.3326C35.8206 11.4023 36.1622 11.8217 35.7513 11.8217L16.3792 13.0119C16.2971 13.0175 16.2175 13.023 16.1405 13.0284ZM13.9826 37.788V16.9315H13.9825C13.9825 16.0218 14.2564 15.6016 15.0775 15.5309L37.3258 14.2016C38.0803 14.1316 38.4221 14.6219 38.4221 15.5309V36.2475C38.4221 37.1581 38.2848 37.9291 37.0521 37.9984L15.7621 39.259C14.53 39.3283 13.9826 38.9089 13.9826 37.788ZM34.3826 19.3817C35 19.3108 35.1365 18.6808 35 18.0503L30.2751 18.3318C29.5904 18.4012 29.0436 18.9609 29.1802 19.7317L30.9606 19.9408V29.5998L23.9776 18.681L18.9115 19.0305C17.9524 19.101 17.6107 20.0102 17.7479 20.6407L19.459 20.781V34.5694L18.2266 34.9189C17.7476 35.059 17.6104 35.7583 17.7476 36.0386L22.47 35.7583C24.1831 35.7583 24.1831 34.4991 24.1831 34.4991L22.0598 34.0088V23.5804L28.7697 34.3588C29.5904 35.4081 29.8648 35.7583 30.9606 35.7583C31.645 35.7583 32.4662 35.4782 33.3569 34.9884V19.5908L34.3826 19.3817Z" fill="black"/>
<path opacity="0.4" fill-rule="evenodd" clip-rule="evenodd" d="M12.8198 12.3115C13.9141 13.2213 14.3246 13.1519 16.3795 13.0116L35.7517 11.8213C36.1625 11.8213 35.8209 11.4019 35.6838 11.3322L32.4666 8.95231C31.8501 8.46257 31.0288 7.90173 29.4546 8.04203L10.6966 9.44197C10.0125 9.51138 9.87584 9.86138 10.1483 10.1419L12.8198 12.3115ZM13.9829 16.9311V37.7877C13.9829 38.9086 14.5303 39.3279 15.7624 39.2586L37.0524 37.998C38.2851 37.9287 38.4224 37.1577 38.4224 36.2471V15.5306C38.4224 14.6215 38.0806 14.1313 37.3261 14.2012L15.0778 15.5306C14.2567 15.6012 13.9828 16.0214 13.9828 16.9311H13.9829ZM35.0003 18.0499C35.1368 18.6805 35.0003 19.3104 34.3829 19.3813L33.3572 19.5904V34.9881C32.4666 35.4779 31.6453 35.7579 30.9609 35.7579C29.8652 35.7579 29.5907 35.4077 28.77 34.3584L22.0601 23.58V34.0084L24.1834 34.4987C24.1834 34.4987 24.1834 35.7579 22.4703 35.7579L17.7479 36.0382C17.6107 35.7579 17.7479 35.0586 18.2269 34.9185L19.4593 34.569V20.7806L17.7482 20.6403C17.611 20.0098 17.9528 19.1006 18.9118 19.0301L23.978 18.6807L30.9609 29.5994V19.9404L29.1805 19.7313C29.0439 18.9605 29.5907 18.4008 30.2754 18.3314L35.0003 18.0499ZM9.12161 7.55236L28.633 6.08209C31.0291 5.87182 31.6455 6.01269 33.1515 7.13203L39.3798 11.6113C40.4075 12.3816 40.75 12.5913 40.75 13.431V37.998C40.75 39.5377 40.2018 40.4482 38.2854 40.5876L15.6268 41.9876C14.1882 42.0578 13.5035 41.848 12.7502 40.8676L8.16355 34.7784C7.34178 33.6575 7 32.819 7 31.838V10.0011C7 8.74204 7.54831 7.69174 9.12161 7.55236Z" fill="black"/>
</svg>

<svg xmlns="http://www.w3.org/2000/svg" width="48" height="48" fill="none" viewBox="0 0 48 48">
  <path fill="#000" fill-rule="evenodd" d="M12.82 12.312c1.094.91 1.505.84 3.56.7l19.372-1.19c.41 0 .069-.42-.068-.49l-3.217-2.38c-.617-.49-1.438-1.05-3.012-.91l-18.758 1.4c-.684.07-.821.42-.549.7l2.672 2.17zm1.163 4.62v20.856c0 1.12.547 1.54 1.78 1.47l21.29-1.26c1.232-.07 1.37-.84 1.37-1.75V15.53c0-.91-.342-1.4-1.097-1.33l-22.248 1.33c-.821.07-1.095.49-1.095 1.4zM35 18.05c.137.63 0 1.26-.617 1.331l-1.026.21v15.397c-.89.49-1.712.77-2.396.77-1.096 0-1.37-.35-2.191-1.4L22.06 23.58v10.428l2.123.49s0 1.26-1.713 1.26l-4.722.28c-.137-.28 0-.98.479-1.12l1.232-.349V20.781l-1.71-.14c-.138-.631.204-1.54 1.163-1.61l5.066-.35 6.983 10.918V19.94l-1.78-.209c-.137-.77.41-1.33 1.094-1.4L35 18.05zM9.122 7.552l19.511-1.47c2.396-.21 3.012-.07 4.518 1.05l6.229 4.48c1.027.77 1.37.98 1.37 1.819v24.567c0 1.54-.548 2.45-2.465 2.59l-22.658 1.4c-1.439.07-2.123-.14-2.877-1.12l-4.586-6.09C7.342 33.658 7 32.82 7 31.838V10.001c0-1.259.548-2.31 2.122-2.449z" clip-rule="evenodd" opacity=".4"/>
</svg>
